/* XPM */
static char *dummy[]={
"32 32 581 2",
"Qt c None",
"h# c #000000",
".h c #010101",
"ha c #000000",
"di c #010101",
"hc c #000000",
"dM c #020202",
"hb c #000000",
"g4 c #000000",
"ap c #040404",
"h. c #000000",
".# c #070707",
"be c #070707",
"cT c #090909",
".y c #0c0c0c",
"gD c #030303",
"eE c #0d0d0d",
"#F c #101010",
"g3 c #040404",
"ec c #0f0f0f",
"aQ c #131313",
"ao c #141414",
"bE c #131313",
".g c #151515",
"gh c #070707",
"gC c #080808",
"e4 c #1a1a1a",
"eF c #1c1c1c",
"fQ c #0a0a0a",
"g5 c #080808",
".i c #242424",
"gg c #0a0a0b",
"bf c #212121",
".V c #212120",
"g9 c #080808",
"dL c #232323",
"b5 c #292a29",
".a c #313131",
"dj c #313131",
"g6 c #0e0e0e",
"fP c #202020",
"aP c #383938",
"fm c #202021",
"#2 c #3d3d3d",
"fl c #323232",
"#g c #383837",
"g7 c #0e0e0e",
"g8 c #0d0d0e",
"e5 c #353535",
"bF c #3c3c3b",
".z c #464646",
"ct c #40403f",
"eb c #434342",
".f c #464745",
".b c #4a4a49",
".e c #4a4b49",
".c c #4a4c49",
".d c #4b4c49",
"dN c #4b4b4b",
"aq c #555655",
"b6 c #515251",
".x c #585957",
".W c #5f5f5e",
"bd c #575856",
"gE c #1f1f20",
"#E c #5c5d5b",
"g2 c #222223",
"eD c #606160",
"cS c #6a6b68",
"ed c #656664",
"aR c #6f6f6d",
"bD c #6b6c6a",
"gi c #333334",
".j c #7e7f7d",
"gB c #363637",
"e3 c #767775",
"eG c #777876",
"cu c #7f807d",
"#1 c #848583",
"fR c #404041",
"bg c #7a7b78",
"gf c #414141",
".U c #838581",
"#h c #8b8c8a",
"b4 c #8b8d89",
"g1 c #3b3b3c",
"gF c #3c3c3c",
"g0 c #3c3c3d",
"gG c #3d3d3e",
"gZ c #3f3f3f",
"gH c #3f3f41",
"gY c #404041",
"gX c #424243",
"gP c #434344",
"gW c #454546",
"gO c #464647",
"gV c #484849",
"gQ c #48484a",
"gU c #49494a",
"gT c #4b4b4c",
"gR c #4b4b4d",
"gN c #4c4c4d",
"gS c #4d4d4e",
"gI c #505051",
"gM c #5b5b5c",
"gJ c #5e5e60",
"gK c #626262",
"gL c #636365",
"dh c #8f908e",
"fO c #6d6d6e",
"fn c #6e6e6f",
"fk c #9c9c9c",
"#f c #a2a39f",
"e6 c #9d9d9e",
"bG c #979895",
".A c #979894",
"cs c #acada9",
"cU c #989a96",
"#G c #9e9f9c",
".w c #adafaa",
"#3 c #a6a7a4",
"dk c #aaaba8",
".X c #abaca9",
"b7 c #b2b3af",
"an c #a4a6a2",
"dK c #a6a8a5",
"ar c #adaeab",
".k c #b0b1ad",
"ea c #b3b5b2",
"dO c #b6b7b4",
"aS c #b9bab7",
"#D c #bdbfbb",
".v c #bebfbb",
"#i c #bec0bb",
"cR c #c7c8c5",
"cv c #cacac8",
"ee c #cfd0cd",
"dg c #d2d3d0",
"fW c #242424",
"fX c #2c2c2c",
"fV c #2f2f2f",
"fY c #393939",
"gp c #3c3c3c",
"gq c #404040",
"fZ c #434343",
"go c #474747",
".4 c #4a5e71",
"gr c #4b4b4b",
"bJ c #4b5863",
"gn c #4e4e4e",
"c. c #4e5658",
".5 c #4f677e",
"f0 c #505050",
"gm c #515151",
"b1 c #51606a",
"#6 c #516578",
"#K c #51677b",
"bi c #526474",
"## c #526679",
"#. c #526a82",
"#y c #537290",
"gs c #545454",
"at c #545f67",
"fs c #555654",
"#X c #566d81",
"ek c #575956",
".3 c #57636a",
"#m c #576672",
"aU c #576877",
"f1 c #595959",
"el c #595b58",
"#5 c #595e5d",
"cp c #596062",
"fr c #5a5a58",
"gA c #5a5a5a",
"gj c #5b5b5b",
"bA c #5b6e7f",
"ak c #5b7084",
"ft c #5c5c5a",
"#n c #5c7995",
"gz c #5d5d5d",
"gk c #5e5e5e",
"em c #5e5f5c",
".6 c #5e7993",
".9 c #5e7994",
"gl c #5f5f5f",
"fU c #606060",
"co c #607992",
"gy c #616161",
"#k c #61635f",
"#I c #626460",
"#J c #626663",
"#l c #626968",
"c# c #627a91",
".8 c #627e99",
"b9 c #636561",
".7 c #637e9a",
"aL c #637f9c",
"#W c #6383a2",
"fu c #646462",
"ge c #646464",
"fS c #656565",
"dV c #656762",
".0 c #656763",
"#z c #65757f",
"b. c #6591be",
"f2 c #666666",
"en c #666864",
".2 c #666a69",
"a9 c #6692bf",
"by c #6692c0",
"gx c #676767",
"bx c #6793c0",
"fT c #686868",
".1 c #686a65",
"ah c #6894c1",
"fv c #696a67",
"#a c #69757c",
"bY c #6995c2",
"gd c #6a6a6a",
"ej c #6a6c68",
"cC c #6b96c2",
"aJ c #6b97c4",
"gc c #6c6c6c",
"ba c #6c7d8d",
"d# c #6c8fb3",
"cB c #6c97c1",
"bI c #6d6f6b",
"f3 c #6e6e6e",
"cm c #6e99c5",
"c1 c #6f879c",
"b0 c #708ead",
"#x c #708fb0",
"c2 c #7090b1",
"bZ c #709ac4",
"cc c #709ac6",
"fw c #71716f",
"gb c #717171",
".F c #71736f",
"cy c #718ca5",
"cM c #718ca9",
"cb c #719bc6",
".E c #727470",
"du c #728ea9",
"bL c #729bc4",
"c7 c #729dc7",
"#8 c #729dcb",
"aw c #729ecb",
"ga c #737373",
"b# c #7395b7",
"c5 c #739dc6",
"dv c #7492b0",
"dA c #7492b2",
"dw c #7494b5",
"dz c #7494b6",
"dy c #7495b7",
"dx c #7496b7",
"ai c #749cc6",
"c4 c #749dc6",
"gw c #757575",
"dW c #757773",
"dB c #7591ad",
"#o c #7594b3",
"aj c #7598bc",
"aK c #759dc6",
".G c #767773",
"fx c #767775",
".H c #767977",
".I c #767a7b",
"bz c #7698ba",
"#V c #769cc2",
"cK c #769ec8",
"c6 c #769fc9",
"g# c #777777",
".J c #777e81",
"au c #778fa7",
"cA c #779ec5",
"#O c #77a1cd",
"gt c #787878",
"bh c #787a76",
".K c #787f83",
"dt c #788c9e",
"f4 c #797979",
"es c #797a78",
"#L c #7993ae",
"g. c #7a7a7a",
"cL c #7a9cbf",
"#P c #7aa3ce",
"aI c #7ba2cb",
"gv c #7c7c7c",
"#j c #7c7d79",
"fq c #7c7d7b",
"cW c #7c7e7a",
"da c #7c94ab",
"cD c #7ca2c9",
"fy c #7d7d7c",
".L c #7d8488",
"ag c #7da3c9",
"f9 c #7e7e7e",
"gu c #7f7f7f",
"eo c #7f807d",
"cw c #7f827d",
"fM c #80807e",
"f5 c #808080",
"fp c #80817f",
"cn c #80a5ca",
"et c #818280",
"c3 c #81a3c6",
"ax c #81a7d0",
"fN c #828281",
"fo c #828282",
"d7 c #828481",
"#A c #828787",
"#9 c #82a8d1",
"#b c #838785",
".M c #83898c",
"dC c #8397aa",
"bK c #839cb6",
"#N c #83a9d0",
"f8 c #848484",
"er c #848582",
"fL c #848583",
"cz c #84a2c1",
"aT c #858783",
"bX c #85a9ce",
"#t c #85abd2",
"fK c #868684",
"bu c #86a0ba",
"bM c #86a9ce",
"#u c #86abd2",
"f6 c #878787",
"fz c #878886",
"#s c #87acd2",
"fJ c #888886",
"ep c #888a87",
"fI c #898987",
"f7 c #898989",
"ei c #898b87",
"av c #89add3",
"eq c #8a8b88",
"fH c #8b8b89",
"fA c #8b8b8a",
"dF c #8b8c89",
".N c #8b9091",
"#r c #8baed4",
"fG c #8c8c8a",
"eP c #8c8e8b",
"aM c #8c97a0",
"#M c #8cadcf",
"ca c #8daecf",
"fF c #8e8e8c",
"dm c #8e8f8b",
"dX c #8e9290",
"ds c #8e9aa1",
"fE c #8f8f8d",
"eO c #8f908d",
".Z c #8f918c",
"eM c #8f918d",
"cl c #8fb0d2",
"fD c #90908f",
"dc c #90918e",
"a6 c #90a7c0",
"cd c #90b2d3",
"fC c #919290",
"#7 c #91aecb",
"d. c #91afcf",
"bw c #91b1d2",
"fB c #929390",
"#Y c #929592",
"#p c #92b2d3",
"cJ c #92b3d4",
".O c #939695",
"bj c #93aeca",
"#Q c #93b4d6",
"#q c #93b4d7",
"eQ c #949693",
"cN c #949b9e",
"bU c #94abc3",
"a# c #94b0cc",
"a8 c #94b3d3",
".D c #959692",
"aV c #95aeca",
"cx c #969ea1",
"d6 c #979a99",
"eR c #999a98",
"aW c #99b8d8",
"dR c #9a9c98",
"eN c #9a9d99",
"bn c #9aadc1",
"cH c #9bb9d7",
"#c c #9c9e99",
"as c #9d9f9b",
"a0 c #9db1c5",
"#R c #9dbbdb",
".P c #9fa09c",
"eS c #9fa09d",
"eL c #a0a19d",
"c0 c #a0abaf",
"a5 c #a0b3c6",
"#U c #a0bcd8",
".Q c #a1a29f",
"a2 c #a1a39f",
"dD c #a1acb4",
"ae c #a1b9cf",
"d8 c #a2a2a0",
"eu c #a2a3a1",
"a1 c #a2b2c0",
"aF c #a2b7cc",
"aA c #a2b8ce",
"cf c #a2bbd5",
"eT c #a3a4a1",
"cO c #a3a5a2",
"dr c #a3a6a0",
"dU c #a3a7a0",
"#v c #a3bfdc",
"b8 c #a4a6a2",
"db c #a4adb5",
"d1 c #a4b3c0",
"bP c #a4b6c9",
"fj c #a5a6a3",
"eA c #a5a7a4",
"cX c #a5a8a3",
"dE c #a6a7a4",
"d0 c #a6b3bf",
"d2 c #a6b3c0",
"aD c #a6b5c3",
"#w c #a6bfd9",
"aE c #a7bbcf",
"eU c #a8a9a7",
"aY c #a8c2de",
"d3 c #a9b6c2",
"aC c #a9b7c4",
"c8 c #aac4de",
"#B c #abada9",
"al c #abafb0",
"dY c #abb2b5",
"a. c #abc3dd",
"bo c #acb7bf",
"aB c #acbed2",
"aO c #adafab",
"cE c #adc6de",
"eV c #aeafad",
"dZ c #aeb8bf",
"bk c #afc6df",
"dQ c #b0b2ad",
"ad c #b0bfcf",
"bl c #b0c7df",
"#4 c #b1b2ae",
"e1 c #b1b4af",
"cg c #b1c3d5",
"aa c #b2c1d0",
"ck c #b2c6dc",
"#d c #b3b4b1",
"a4 c #b3b5b2",
"ez c #b3b6b0",
"ac c #b3c0ce",
"ab c #b3c1ce",
"ci c #b3c3d4",
"cj c #b3c4d6",
"aX c #b4cae3",
"a3 c #b5b6b3",
"d5 c #b5babe",
"d4 c #b5bec6",
"af c #b5c9de",
"cF c #b6cbe1",
"cG c #b6cbe2",
"aH c #b6cce2",
"ch c #b7c6d6",
"bH c #b8b9b6",
"aG c #b8c6d3",
"bt c #b8c7d5",
".R c #b9bab6",
"bT c #b9c7d4",
"bv c #b9cde1",
"ay c #bacfe5",
"eW c #bbbcba",
"dI c #bbbeb7",
"ey c #bcbeb7",
"dH c #bcbfb8",
"bS c #bcc6ce",
"c9 c #bcd0e5",
"#Z c #bdbebb",
"df c #bdbfb9",
"dn c #bdbfbb",
"ex c #bdc0b9",
"az c #bdc9d6",
"bV c #bdccdc",
".l c #bec0bc",
".u c #bfc1bc",
"bQ c #bfcad4",
".m c #c0c1bc",
".n c #c0c1bd",
"de c #c0c2bc",
"eg c #c0c2c1",
".t c #c1c1be",
".o c #c1c2be",
"d9 c #c1c3bf",
"eh c #c1c3c0",
"dS c #c1c4bf",
"bR c #c1c9cf",
"bO c #c1cfdd",
"bm c #c1d3e4",
".p c #c2c2bf",
".q c #c2c3bf",
".r c #c3c3c0",
"fi c #c3c3c1",
".C c #c3c4bf",
".s c #c3c4c0",
"bc c #c3c4c1",
"e. c #c3c5bf",
"e0 c #c3c6bf",
"a7 c #c3d4e4",
"cI c #c3d4e7",
"#C c #c4c5c2",
"cQ c #c4c6c0",
"ew c #c4c6c1",
"eJ c #c4c6c2",
"ev c #c5c6c3",
"eZ c #c5c7c1",
"#H c #c5c7c3",
"bq c #c5c8c2",
".Y c #c6c8c3",
"aZ c #c6d6e5",
".S c #c7c8c3",
"#0 c #c7c8c4",
"dd c #c7c8c6",
"eY c #c7c9c3",
"eK c #c7c9c5",
"bW c #c7d8e8",
"br c #c8cac4",
"eB c #c8cac5",
"bN c #c8d8e9",
"cY c #c9cac7",
"eX c #c9cbc7",
"dq c #c9cdc6",
"eC c #cacbc7",
"dl c #cacbc8",
"dG c #cbccc9",
"bp c #cbcdc9",
"ce c #ccdae9",
"#S c #ccdceb",
"f. c #cdcdca",
"e9 c #cdcdcb",
"f# c #cdcecb",
"#e c #cdcfca",
"fa c #cececb",
"fb c #cececc",
"fc c #cecfcc",
"am c #ced0cc",
"cZ c #ced1cd",
"e8 c #cfcfcd",
"fd c #cfd0cd",
"fe c #cfd0ce",
"cP c #cfd1cc",
"e7 c #cfd1cd",
"fh c #d0d0cd",
"fg c #d0d0ce",
"ef c #d0d1cc",
"ff c #d0d1ce",
"e# c #d0d2ce",
"cV c #d1d1ce",
"b2 c #d1d2cf",
".T c #d1d3cf",
"dJ c #d2d4d0",
".B c #d3d4d0",
"dP c #d5d6d2",
"aN c #d6d7d4",
"eI c #d6d8d2",
"cr c #d6d8d4",
"bC c #d7d8d6",
"#T c #d7e3ef",
"bB c #d8d8d6",
"cq c #d8d9d7",
"e2 c #d9dad7",
"dT c #d9ddd6",
"bb c #dcdcda",
"eH c #dcddda",
"bs c #dcdddb",
"b3 c #e0e1de",
"dp c #ebedea",
"do c #eff1ef",
"QtQtQtQtQtQtQtQtQtQtQtQtQtQtQtQtQtQtQtQtQtQtQtQtQtQtQtQtQtQtQtQt",
"QtQtQtQtQtQtQtQtQtQtQtQtQtQtQtQtQtQtQtQtQtQtQtQtQtQtQtQtQtQtQtQt",
"QtQtQtQtQtQtQtQtQtQtQtQtQtQtQtQtQtQtQtQtQtQtQtQtQtQtQtQtQtQtQtQt",
"QtQtQtQtQtQtQtQtQtQtQtQtQtQtQtQtQtQtQtQtQtQtQtQtQtQtQtQtQtQtQtQt",
"QtQtQtQtQtQtQtQtQtQtQtQtQtQtQtQtQtQtQtQtQtQtQtQtQtQtQtQtQtQtQtQt",
"QtQtQtQtQtQtQtQtQtQtQtQtQtQtQtQtQtQtQtQtQtQtQtQtQtQtQtQtQtQtQtQt",
"QtQtQtQt.#.a.b.c.d.d.d.d.d.d.d.d.d.d.d.d.d.d.d.d.e.f.g.hQtQtQtQt",
"QtQtQtQt.i.j.k.l.m.n.o.o.p.q.r.s.r.p.p.o.t.n.m.u.v.w.x.yQtQtQtQt",
"QtQtQtQt.z.A.B.C.D.E.F.G.H.I.J.K.L.M.N.O.P.Q.R.C.S.T.U.VQtQtQtQt",
"QtQtQtQt.W.X.Y.Z.0.1.2.3.4.5.6.7.8.9#.###a#b#c#d.q#e#f#gQtQtQtQt",
"QtQtQt.h#h#i#j#k#l#m#n#o#p#q#r#s#t#u#v#w#x#y#z#A#B#C#D#EQtQtQtQt",
"QtQtQt#F#G#H#I#J#K#L#M#N#O#P#Q#R#R#u#S#T#U#V#W#X#Y#Z#0#1QtQtQtQt",
"QtQtQt#2#3#4#5#6#7#u#8#9a.a#aaabacadaeafagahaiajakalamanaoQtQtQt",
"QtQtapaqarasatauavawaxayazaAaBaCaDaEaFaGaHaIaJaKaLaMaNaOaPQtQtQt",
"QtQtaQaRaSaTaUaVaWaXaYaZa0a1a2aOa3a4a5a6a7a8a9b.b#babbbcbdbeQtQt",
"QtQtbfbg#Cbhbibjbk#TblbmbnbobpbqbrbsbtbubvbwbxbybzbAbBbCbDbEQtQt",
"QtQtbFbGbHbIbJbKbLbxbMbNbObPbQbRbSbTbUbVbWbXbYbZb0b1b2b3b4b5QtQt",
"QtQtb6b7b8b9c.c#cacbcccdcecfcgchcicjckaHclcmcmcncocpcqcrcsctQtQt",
"QtQtcucvcw#I.FcxcyczcAcBcCcDcEcFcGcHcI#TcJcKcLcMcNcOcPcQcRcSQtQt",
"QtcTcUcVcWcXcYcZc0c1c2c3cDc4c5cKc6c7c8c9d.d#dadbdcdddedfdgdhdiQt",
"QtdjdkdldmdndodpdqdrdsdtdudvdwdxdydzdAdBdCdDdEdFdGcQdHdIdJdKdLQt",
"dMdNdOdPdQdRdSdTdUdVdWdXdYdZd0d1d2d3d4d5d6d7d8d9e.dfdIdIe#eaeb.h",
"ecedeeefegeheibhcwejekelemeneoepeqereseteuevewexdHeyezeAeBeCeDeE",
"eFeGeHeIeJeKeLeMeNeOePdceQeReSeTeUeVeW#CeXeYeZeZcQe0dfe1ame2e3e4",
"e5e6dE#Ce7e8e9f.f#f#fafbfce8fdfefffffgfgfhfhfhfhfhfhfhfdfifjfkfl",
"fmfnfofpfqfrfsftfufvfwfxfyetfzfAdcfBfCfDfEfFfGfHfIfJfKfLfMfNfOfP",
"fQfRfSfTfUfVfWfXfYfZf0f1f2f3f4f5f6f7f6f8f5f9g.g#gagbgcgdf2gegfgg",
"ghgigjgkglgmgngogpgqgrgsfUfTgbgtguf5f9gvgtgwgbf3gdgxgegygzgAgBgC",
"gDgEgFgGgHgIgJgKgLgMgNgOgPgPgOgQgRgSgNgTgUgVgOgWgPgXgYgZg0g1g2g3",
"g4g5g6g7g8g8g8g8g8g8g8g8g8g8g8g8g8g8g8g8g8g8g8g8g8g8g8g8g7g6g9h.",
"QtQth#hahbhbhbhbhbhbhbhbhbhbhbhbhbhbhbhbhbhbhbhbhbhbhbhbhch#QtQt",
"QtQtQtQtQtQtQtQtQtQtQtQtQtQtQtQtQtQtQtQtQtQtQtQtQtQtQtQtQtQtQtQt"};
